X:1
T:Fingal's Cave
C:John Gow
R:Strathspey
Q: 128
K:E
M:4/4
L:1/8
B,|E>F GG (F/A)G/F/ E>B,|E>F GB (c/B/)(A/G/) (F/A/)(G/F/)|E>F GG (F/A/)G/F/ E>B,|C>B,C>B, CEE:|
|:B|(e2 e/)B/c/d/ (e2 d/)g/b/g/|(e2 g/)e/ b/g/ c'f (f/a/)g/f/|(e2 e/)B/c/d/ (e2 e/)f/g/e/|a>g f/e/f/d/ e2 E:|
|:G/F/|(E/F/)G/F/ (E/G/)B/e/ c/B/A/G/ (A/G/)F/E/|(E/e/)(B/c/) (G/B/)(B,/A/) GF F2|
E/(e/d/)c/ (B/A/)(G/F/) G/c/(B/A/ G/F/E/D/)|(C/E/)(B,/E/) (C/E/)(B,/E/) CEE:|
B|(e/d/)(e/d/) (d/B/)c/d/ (e/d/)(e/d/) (e/g/)(b/g/)|e2 (3g/f/e/ (3b/a/g/ c'f f/a/g/f/|
eg/f/ e/B/(c/d/) (e2 e/)f/g/e/|a>g f/e/f/d/ e2 EB|
(e/d/)(e/d/) (e/B/)(c/d/) (e/d/)(e/d/) (e/g/)(b/g/)|(e/B/)(g/e/) (b/g/)(e'/b/) c'f (f/a/)g/f/|
e/(e/d/)e/ (c/e/)(B/e/) (c/e/)(d/f/) (e/g/)(f/a/)|(g/b/)(a/c'/) (b/g/)(f/a/) gee||
